img/quality.svg

<svg width="27" height="37" viewBox="0 0 27 37" fill="none" xmlns="http://www.w3.org/2000/svg">
<g clip-path="url(#clip0_1_321)">
<path d="M22.658 15.518C22.5828 15.596 22.5263 15.6902 22.4929 15.7932C22.4594 15.8963 22.4499 16.0057 22.465 16.113L22.981 19.778L19.353 20.418C19.246 20.4369 19.1447 20.4799 19.0568 20.5439C18.969 20.6078 18.8969 20.691 18.846 20.787L17.121 24.052L17.109 24.048L13.813 22.43C13.7144 22.3838 13.6069 22.3598 13.498 22.3598C13.3891 22.3598 13.2816 22.3838 13.183 22.43L9.888 24.048L9.877 24.052L8.152 20.787C8.1011 20.6907 8.02887 20.6073 7.94083 20.5432C7.85279 20.4791 7.75126 20.4359 7.644 20.417L4.016 19.778L4.532 16.113C4.54723 16.0058 4.53785 15.8965 4.50459 15.7934C4.47132 15.6903 4.41504 15.5961 4.34 15.518L1.776 12.858L4.34 10.196C4.41504 10.1179 4.47132 10.0237 4.50459 9.92063C4.53785 9.81755 4.54723 9.70824 4.532 9.601L4.016 5.936L7.644 5.297C7.75129 5.27816 7.85285 5.23503 7.9409 5.1709C8.02895 5.10677 8.10116 5.02334 8.152 4.927L9.877 1.661L13.184 3.284C13.282 3.33211 13.3898 3.35713 13.499 3.35713C13.6082 3.35713 13.716 3.33211 13.814 3.284L17.12 1.661L18.846 4.927C18.949 5.122 19.136 5.259 19.353 5.297L22.981 5.937L22.465 9.601C22.435 9.819 22.505 10.038 22.658 10.196L25.221 12.857L22.658 15.518ZM23.994 31.356L20.942 30.891C20.7817 30.8665 20.6177 30.8973 20.4772 30.9783C20.3367 31.0594 20.228 31.1859 20.169 31.337L19.046 34.213L14.323 26.034L15.116 24.661L16.35 25.267L17.31 26.927C17.768 27.718 19.012 27.015 18.547 26.211C18.547 26.211 18.056 25.34 18.059 25.334L19.234 23.11L23.994 31.356ZM7.952 34.213L6.828 31.337C6.76898 31.1859 6.66027 31.0594 6.51977 30.9783C6.37926 30.8973 6.21535 30.8665 6.055 30.891L3.003 31.356L7.763 23.11L8.948 25.35L8.45 26.211C7.99 27.006 9.23 27.716 9.687 26.927L10.647 25.267L13.499 23.867L13.831 24.03L7.952 34.213ZM26.727 12.362L23.928 9.456L24.492 5.452C24.5179 5.26869 24.4716 5.08248 24.3628 4.93267C24.254 4.78286 24.0913 4.68115 23.909 4.649L19.946 3.951L18.059 0.381C17.9724 0.216695 17.8251 0.092622 17.6485 0.0351165C17.4718 -0.0223889 17.2798 -0.00879951 17.113 0.0730004L13.499 1.847L9.884 0.0730004C9.71723 -0.00879951 9.52515 -0.0223889 9.34853 0.0351165C9.1719 0.092622 9.02464 0.216695 8.938 0.381L7.052 3.95L3.089 4.648C2.90649 4.67992 2.74354 4.78153 2.63457 4.93137C2.5256 5.08121 2.47913 5.26754 2.505 5.451L3.069 9.455L0.269 12.361C0.141267 12.4941 0.0699453 12.6715 0.0699453 12.856C0.0699453 13.0405 0.141267 13.2179 0.269 13.351L3.069 16.258L2.505 20.261C2.47885 20.4446 2.52518 20.6312 2.63418 20.7813C2.74318 20.9313 2.9063 21.0331 3.089 21.065L6.907 21.737L1.023 31.927C0.735 32.427 1.159 33.081 1.749 32.991L5.706 32.388L7.162 36.116C7.21089 36.2414 7.29423 36.3505 7.40242 36.4306C7.51061 36.5107 7.63924 36.5585 7.77347 36.5687C7.90769 36.5788 8.04206 36.5508 8.16105 36.4879C8.28005 36.4249 8.37883 36.3297 8.446 36.213L13.499 27.462L18.551 36.213C18.6182 36.3297 18.717 36.4249 18.8359 36.4879C18.9549 36.5508 19.0893 36.5788 19.2235 36.5687C19.3578 36.5585 19.4864 36.5107 19.5946 36.4306C19.7028 36.3505 19.7861 36.2414 19.835 36.116L21.292 32.388L25.248 32.991C25.819 33.078 26.264 32.429 25.974 31.928L20.091 21.737L23.909 21.064C24.0913 21.0319 24.254 20.9301 24.3628 20.7803C24.4716 20.6305 24.5179 20.4443 24.492 20.261L23.928 16.257L26.728 13.352C26.8563 13.2189 26.9279 13.0413 26.9279 12.8565C26.9279 12.6717 26.8563 12.4941 26.728 12.361L26.727 12.362Z" fill="#BB9D60"/>
<path d="M20.286 12.146C20.1922 12.1459 20.0992 12.1642 20.0125 12.2001C19.9257 12.2359 19.8469 12.2885 19.7805 12.3548C19.7141 12.4211 19.6614 12.4998 19.6254 12.5865C19.5895 12.6732 19.571 12.7662 19.571 12.86C19.5691 14.4696 18.9289 16.0127 17.7908 17.1508C16.6527 18.2889 15.1096 18.9291 13.5 18.931C11.8904 18.9291 10.3473 18.2889 9.2092 17.1508C8.07107 16.0127 7.43085 14.4696 7.429 12.86C7.43024 11.8672 7.67465 10.8899 8.14086 10.0134C8.60707 9.13687 9.28088 8.38791 10.1034 7.83197C10.9259 7.27603 11.8721 6.93003 12.8592 6.82422C13.8463 6.71842 14.8443 6.85602 15.766 7.225C15.9396 7.28608 16.1302 7.27783 16.2979 7.20197C16.4656 7.12612 16.5976 6.98851 16.6664 6.81778C16.7352 6.64705 16.7355 6.45635 16.6673 6.2854C16.599 6.11445 16.4675 5.9764 16.3 5.9C15.4101 5.54163 14.4594 5.35828 13.5 5.36C9.364 5.36 6 8.724 6 12.86C6 16.995 9.364 20.36 13.5 20.36C17.636 20.36 21 16.995 21 12.86C21 12.6706 20.9248 12.489 20.7909 12.3551C20.657 12.2212 20.4754 12.146 20.286 12.146Z" fill="#BB9D60"/>
<path d="M11.58 11.5C11.5137 11.4337 11.435 11.3811 11.3483 11.3452C11.2617 11.3093 11.1688 11.2908 11.075 11.2908C10.9812 11.2908 10.8883 11.3093 10.8017 11.3452C10.715 11.3811 10.6363 11.4337 10.57 11.5C10.5037 11.5663 10.4511 11.645 10.4152 11.7317C10.3793 11.8183 10.3608 11.9112 10.3608 12.005C10.3608 12.0988 10.3793 12.1917 10.4152 12.2783C10.4511 12.365 10.5037 12.4437 10.57 12.51L13.105 15.046C13.367 15.308 13.852 15.309 14.115 15.046L19.622 9.539C19.7455 9.40303 19.812 9.22474 19.8076 9.0411C19.8032 8.85745 19.7282 8.68255 19.5983 8.55266C19.4684 8.42277 19.2935 8.34785 19.1099 8.34344C18.9263 8.33904 18.748 8.40549 18.612 8.529L13.61 13.531L11.58 11.5Z" fill="#BB9D60"/>
<path d="M20.069 29.074C20.069 29.2635 19.9937 29.4452 19.8597 29.5792C19.7257 29.7132 19.544 29.7885 19.3545 29.7885C19.165 29.7885 18.9833 29.7132 18.8493 29.5792C18.7153 29.4452 18.64 29.2635 18.64 29.074C18.64 28.8845 18.7153 28.7028 18.8493 28.5688C18.9833 28.4348 19.165 28.3595 19.3545 28.3595C19.544 28.3595 19.7257 28.4348 19.8597 28.5688C19.9937 28.7028 20.069 28.8845 20.069 29.074Z" fill="#BB9D60"/>
<path d="M8.359 29.074C8.359 29.2635 8.28372 29.4452 8.14973 29.5792C8.01573 29.7132 7.834 29.7885 7.6445 29.7885C7.455 29.7885 7.27327 29.7132 7.13927 29.5792C7.00528 29.4452 6.93 29.2635 6.93 29.074C6.93 28.8845 7.00528 28.7028 7.13927 28.5688C7.27327 28.4348 7.455 28.3595 7.6445 28.3595C7.834 28.3595 8.01573 28.4348 8.14973 28.5688C8.28372 28.7028 8.359 28.8845 8.359 29.074Z" fill="#BB9D60"/>
</g>
<defs>
<clipPath id="clip0_1_321">
<rect width="27" height="37" fill="white"/>
</clipPath>
</defs>
</svg>

<svg width="27" height="37" fill="none" xmlns="http://www.w3.org/2000/svg"><g clip-path="url(#clip0_1_321)" fill="#BB9D60"><path d="M22.658 15.518a.714.714 0 00-.193.595l.516 3.665-3.628.64a.714.714 0 00-.507.369l-1.725 3.265-.012-.004-3.296-1.618a.742.742 0 00-.63 0l-3.295 1.618-.011.004-1.725-3.265a.715.715 0 00-.508-.37l-3.628-.639.516-3.665a.714.714 0 00-.192-.595l-2.564-2.66 2.564-2.662a.714.714 0 00.192-.595l-.516-3.665 3.628-.639a.714.714 0 00.508-.37l1.725-3.266 3.307 1.623a.715.715 0 00.63 0l3.306-1.623 1.726 3.266c.103.195.29.332.507.37l3.628.64-.516 3.664c-.03.218.04.437.193.595l2.563 2.661-2.563 2.661zm1.336 15.838l-3.052-.465a.715.715 0 00-.773.446l-1.123 2.876-4.723-8.179.793-1.373 1.234.606.96 1.66c.458.791 1.702.088 1.237-.716 0 0-.491-.871-.488-.877l1.175-2.224 4.76 8.246zM7.952 34.213l-1.124-2.876a.714.714 0 00-.773-.446l-3.052.465 4.76-8.246 1.185 2.24-.498.861c-.46.795.78 1.505 1.237.716l.96-1.66 2.852-1.4.332.163-5.879 10.183zm18.775-21.851l-2.799-2.906.564-4.004a.714.714 0 00-.583-.803l-3.963-.698-1.887-3.57a.714.714 0 00-.946-.308l-3.614 1.774L9.884.073a.714.714 0 00-.946.308L7.052 3.95l-3.963.698a.714.714 0 00-.584.803l.564 4.004-2.8 2.906a.715.715 0 000 .99l2.8 2.907-.564 4.003a.714.714 0 00.584.804l3.818.672-5.884 10.19c-.288.5.136 1.154.726 1.064l3.957-.603 1.456 3.728a.714.714 0 001.284.097l5.053-8.751 5.052 8.751a.715.715 0 001.284-.097l1.457-3.728 3.956.603c.571.087 1.016-.562.726-1.063l-5.883-10.191 3.818-.673a.714.714 0 00.583-.803l-.564-4.004 2.8-2.905a.714.714 0 000-.991l-.001.001z"/><path d="M20.286 12.146a.713.713 0 00-.715.714 6.078 6.078 0 01-6.071 6.071 6.078 6.078 0 01-6.071-6.071 6.078 6.078 0 018.337-5.635A.715.715 0 0016.3 5.9a7.46 7.46 0 00-2.8-.54c-4.136 0-7.5 3.364-7.5 7.5 0 4.135 3.364 7.5 7.5 7.5s7.5-3.365 7.5-7.5a.714.714 0 00-.714-.714z"/><path d="M11.58 11.5a.714.714 0 10-1.01 1.01l2.535 2.536c.262.262.747.263 1.01 0l5.507-5.507a.715.715 0 00-1.01-1.01l-5.002 5.002-2.03-2.031zm8.489 17.574a.714.714 0 11-1.429 0 .714.714 0 011.429 0zm-11.71 0a.714.714 0 11-1.429 0 .714.714 0 011.429 0z"/></g><defs><clipPath id="clip0_1_321"><path fill="#fff" d="M0 0h27v37H0z"/></clipPath></defs></svg>
